Numix-Circle/48x48/apps/kvirc.svg

<?xml version="1.0" encoding="UTF-8" standalone="no"?>
<svg
   xmlns:dc="http://purl.org/dc/elements/1.1/"
   xmlns:cc="http://creativecommons.org/ns#"
   xmlns:rdf="http://www.w3.org/1999/02/22-rdf-syntax-ns#"
   xmlns:svg="http://www.w3.org/2000/svg"
   xmlns="http://www.w3.org/2000/svg"
   xmlns:xlink="http://www.w3.org/1999/xlink"
   xmlns:sodipodi="http://sodipodi.sourceforge.net/DTD/sodipodi-0.dtd"
   xmlns:inkscape="http://www.inkscape.org/namespaces/inkscape"
   viewBox="0 0 48 48"
   id="svg2"
   version="1.1"
   inkscape:version="0.91 r13725"
   sodipodi:docname="kvirc.svg"
   inkscape:export-filename="/home/ismael/Imágenes/icon.png"
   inkscape:export-xdpi="300"
   inkscape:export-ydpi="300">
  <metadata
     id="metadata141">
    <rdf:RDF>
      <cc:Work
         rdf:about="">
        <dc:format>image/svg+xml</dc:format>
        <dc:type
           rdf:resource="http://purl.org/dc/dcmitype/StillImage" />
      </cc:Work>
    </rdf:RDF>
  </metadata>
  <sodipodi:namedview
     pagecolor="#ffffff"
     bordercolor="#666666"
     borderopacity="1"
     objecttolerance="10"
     gridtolerance="10"
     guidetolerance="10"
     inkscape:pageopacity="0"
     inkscape:pageshadow="2"
     inkscape:window-width="1910"
     inkscape:window-height="1027"
     id="namedview139"
     showgrid="true"
     inkscape:object-paths="true"
     inkscape:snap-intersection-paths="true"
     inkscape:object-nodes="true"
     inkscape:snap-smooth-nodes="true"
     inkscape:snap-object-midpoints="true"
     inkscape:snap-center="true"
     inkscape:zoom="18.085106"
     inkscape:cx="14.590598"
     inkscape:cy="21.812344"
     inkscape:window-x="0"
     inkscape:window-y="23"
     inkscape:window-maximized="1"
     inkscape:current-layer="svg2">
    <inkscape:grid
       type="xygrid"
       id="grid4269" />
  </sodipodi:namedview>
  <defs
     id="defs4">
    <linearGradient
       id="linearGradient4559"
       inkscape:collect="always">
      <stop
         id="stop4561"
         offset="0"
         style="stop-color:#ffd941;stop-opacity:1" />
      <stop
         id="stop4563"
         offset="1"
         style="stop-color:#ffd52d;stop-opacity:1" />
    </linearGradient>
    <linearGradient
       inkscape:collect="always"
       id="linearGradient4549">
      <stop
         style="stop-color:#ffd42a;stop-opacity:1;"
         offset="0"
         id="stop4551" />
      <stop
         style="stop-color:#ffd42a;stop-opacity:0;"
         offset="1"
         id="stop4553" />
    </linearGradient>
    <linearGradient
       id="linearGradient3764"
       x1="1"
       x2="47"
       gradientUnits="userSpaceOnUse"
       gradientTransform="matrix(0,-1,1,0,-1.5e-6,47.999998)">
      <stop
         stop-color="#3d3d3d"
         stop-opacity="1"
         id="stop7" />
      <stop
         offset="1"
         stop-color="#474747"
         stop-opacity="1"
         id="stop9" />
    </linearGradient>
    <clipPath
       id="clipPath-790522996">
      <g
         transform="translate(0,-1004.3622)"
         id="g12">
        <path
           d="m -24 13 c 0 1.105 -0.672 2 -1.5 2 -0.828 0 -1.5 -0.895 -1.5 -2 0 -1.105 0.672 -2 1.5 -2 0.828 0 1.5 0.895 1.5 2 z"
           transform="matrix(15.333333,0,0,11.5,414.99999,878.8622)"
           fill="#1890d0"
           id="path14" />
      </g>
    </clipPath>
    <clipPath
       id="clipPath-800858447">
      <g
         transform="translate(0,-1004.3622)"
         id="g17">
        <path
           d="m -24 13 c 0 1.105 -0.672 2 -1.5 2 -0.828 0 -1.5 -0.895 -1.5 -2 0 -1.105 0.672 -2 1.5 -2 0.828 0 1.5 0.895 1.5 2 z"
           transform="matrix(15.333333,0,0,11.5,414.99999,878.8622)"
           fill="#1890d0"
           id="path19" />
      </g>
    </clipPath>
    <linearGradient
       inkscape:collect="always"
       xlink:href="#linearGradient4549"
       id="linearGradient4555"
       x1="1"
       y1="24"
       x2="47"
       y2="24"
       gradientUnits="userSpaceOnUse" />
    <linearGradient
       inkscape:collect="always"
       xlink:href="#linearGradient4559"
       id="linearGradient4557"
       gradientUnits="userSpaceOnUse"
       x1="24"
       y1="1"
       x2="24"
       y2="47" />
  </defs>
  <g
     id="g21">
    <path
       d="m 36.31 5 c 5.859 4.062 9.688 10.831 9.688 18.5 c 0 12.426 -10.07 22.5 -22.5 22.5 c -7.669 0 -14.438 -3.828 -18.5 -9.688 c 1.037 1.822 2.306 3.499 3.781 4.969 c 4.085 3.712 9.514 5.969 15.469 5.969 c 12.703 0 23 -10.298 23 -23 c 0 -5.954 -2.256 -11.384 -5.969 -15.469 c -1.469 -1.475 -3.147 -2.744 -4.969 -3.781 z m 4.969 3.781 c 3.854 4.113 6.219 9.637 6.219 15.719 c 0 12.703 -10.297 23 -23 23 c -6.081 0 -11.606 -2.364 -15.719 -6.219 c 4.16 4.144 9.883 6.719 16.219 6.719 c 12.703 0 23 -10.298 23 -23 c 0 -6.335 -2.575 -12.06 -6.719 -16.219 z"
       opacity="0.05"
       id="path23" />
    <path
       d="m 41.28 8.781 c 3.712 4.085 5.969 9.514 5.969 15.469 c 0 12.703 -10.297 23 -23 23 c -5.954 0 -11.384 -2.256 -15.469 -5.969 c 4.113 3.854 9.637 6.219 15.719 6.219 c 12.703 0 23 -10.298 23 -23 c 0 -6.081 -2.364 -11.606 -6.219 -15.719 z"
       opacity="0.1"
       id="path25" />
    <path
       d="m 31.25 2.375 c 8.615 3.154 14.75 11.417 14.75 21.13 c 0 12.426 -10.07 22.5 -22.5 22.5 c -9.708 0 -17.971 -6.135 -21.12 -14.75 a 23 23 0 0 0 44.875 -7 a 23 23 0 0 0 -16 -21.875 z"
       opacity="0.2"
       id="path27" />
  </g>
  <g
     id="g29"
     style="fill:url(#linearGradient4555)">
    <path
       d="m 24 1 c 12.703 0 23 10.297 23 23 c 0 12.703 -10.297 23 -23 23 -12.703 0 -23 -10.297 -23 -23 0 -12.703 10.297 -23 23 -23 z"
       id="path31"
       style="fill:url(#linearGradient4557)"
       fill-opacity="1"
       fill="url(#linearGradient3764)" />
  </g>
  <g
     id="g33" />
  <g
     id="g135">
    <path
       d="m 40.03 7.531 c 3.712 4.084 5.969 9.514 5.969 15.469 0 12.703 -10.297 23 -23 23 c -5.954 0 -11.384 -2.256 -15.469 -5.969 4.178 4.291 10.01 6.969 16.469 6.969 c 12.703 0 23 -10.298 23 -23 0 -6.462 -2.677 -12.291 -6.969 -16.469 z"
       opacity="0.1"
       id="path137" />
  </g>
  <g
     id="g4254"
     transform="translate(1,1)"
     style="fill:#000000;opacity:0.1">
    <path
       style="opacity:1;fill:#000000;fill-opacity:1;stroke:none;stroke-width:10;stroke-linecap:round;stroke-linejoin:round;stroke-miterlimit:4;stroke-dasharray:none"
       d="m 22,10 -0.964844,2.894531 a 11.5,11.5 0 0 0 -2.78125,1.160157 L 15.515625,12.685547 12.685547,15.515625 14.052734,18.25 a 11.5,11.5 0 0 0 -1.148437,2.78125 L 10,22 l 0,4 2.894531,0.964844 a 11.5,11.5 0 0 0 1.160157,2.78125 l -1.369141,2.738281 2.830078,2.830078 L 18.25,33.947266 a 11.5,11.5 0 0 0 2.78125,1.148437 L 22,38 l 4,0 0.964844,-2.894531 a 11.5,11.5 0 0 0 2.78125,-1.160157 l 2.738281,1.369141 2.830078,-2.830078 L 33.947266,29.75 a 11.5,11.5 0 0 0 1.148437,-2.78125 L 38,26 38,22 35.105469,21.035156 a 11.5,11.5 0 0 0 -1.160157,-2.78125 L 35.314453,15.515625 32.484375,12.685547 29.75,14.052734 A 11.5,11.5 0 0 0 26.96875,12.904297 L 26,10 22,10 Z m 2,6 a 8,8 0 0 1 8,8 8,8 0 0 1 -8,8 8,8 0 0 1 -8,-8 8,8 0 0 1 8,-8 z"
       id="path4256"
       inkscape:connector-curvature="0" />
    <path
       style="fill:#000000;fill-opacity:1;fill-rule:evenodd;stroke:none;stroke-width:1px;stroke-linecap:butt;stroke-linejoin:miter;stroke-opacity:1"
       d="m 14,15 5,0 5,12 5,-12 5,0 -7,16 -6,0 z"
       id="path4258"
       inkscape:connector-curvature="0"
       sodipodi:nodetypes="cccccccc" />
  </g>
  <g
     id="g4250">
    <path
       id="path4199"
       d="M 22 10 L 21.035156 12.894531 A 11.5 11.5 0 0 0 18.253906 14.054688 L 15.515625 12.685547 L 12.685547 15.515625 L 14.052734 18.25 A 11.5 11.5 0 0 0 12.904297 21.03125 L 10 22 L 10 26 L 12.894531 26.964844 A 11.5 11.5 0 0 0 14.054688 29.746094 L 12.685547 32.484375 L 15.515625 35.314453 L 18.25 33.947266 A 11.5 11.5 0 0 0 21.03125 35.095703 L 22 38 L 26 38 L 26.964844 35.105469 A 11.5 11.5 0 0 0 29.746094 33.945312 L 32.484375 35.314453 L 35.314453 32.484375 L 33.947266 29.75 A 11.5 11.5 0 0 0 35.095703 26.96875 L 38 26 L 38 22 L 35.105469 21.035156 A 11.5 11.5 0 0 0 33.945312 18.253906 L 35.314453 15.515625 L 32.484375 12.685547 L 29.75 14.052734 A 11.5 11.5 0 0 0 26.96875 12.904297 L 26 10 L 22 10 z M 24 16 A 8 8 0 0 1 32 24 A 8 8 0 0 1 24 32 A 8 8 0 0 1 16 24 A 8 8 0 0 1 24 16 z "
       style="opacity:1;fill:#b143a7;fill-opacity:1;stroke:none;stroke-width:10;stroke-linecap:round;stroke-linejoin:round;stroke-miterlimit:4;stroke-dasharray:none" />
    <path
       sodipodi:nodetypes="cccccccc"
       inkscape:connector-curvature="0"
       id="path4529"
       d="m 14,15 5,0 5,12 5,-12 5,0 -7,16 -6,0 z"
       style="fill:#e44040;fill-opacity:1;fill-rule:evenodd;stroke:none;stroke-width:1px;stroke-linecap:butt;stroke-linejoin:miter;stroke-opacity:1" />
  </g>
</svg>

<svg xmlns="http://www.w3.org/2000/svg" viewBox="0 0 48 48"><defs><clipPath><g transform="translate(0,-1004.3622)"><path d="m -24 13 c 0 1.105 -0.672 2 -1.5 2 -0.828 0 -1.5 -0.895 -1.5 -2 0 -1.105 0.672 -2 1.5 -2 0.828 0 1.5 0.895 1.5 2 z" transform="matrix(15.333333,0,0,11.5,414.99999,878.8622)" fill="#1890d0"/></g></clipPath><clipPath><g transform="translate(0,-1004.3622)"><path d="m -24 13 c 0 1.105 -0.672 2 -1.5 2 -0.828 0 -1.5 -0.895 -1.5 -2 0 -1.105 0.672 -2 1.5 -2 0.828 0 1.5 0.895 1.5 2 z" transform="matrix(15.333333,0,0,11.5,414.99999,878.8622)" fill="#1890d0"/></g></clipPath><linearGradient id="linearGradient4555" x1="1" x2="47" gradientUnits="userSpaceOnUse"><stop stop-color="#ffd42a" stop-opacity="1"/><stop offset="1" stop-color="#ffd42a" stop-opacity="0"/></linearGradient><linearGradient id="linearGradient4557" gradientUnits="userSpaceOnUse" y1="1" x2="0" y2="47"><stop stop-color="#ffd941" stop-opacity="1"/><stop offset="1" stop-color="#ffd52d" stop-opacity="1"/></linearGradient></defs><g><path d="m 36.31 5 c 5.859 4.062 9.688 10.831 9.688 18.5 c 0 12.426 -10.07 22.5 -22.5 22.5 c -7.669 0 -14.438 -3.828 -18.5 -9.688 c 1.037 1.822 2.306 3.499 3.781 4.969 c 4.085 3.712 9.514 5.969 15.469 5.969 c 12.703 0 23 -10.298 23 -23 c 0 -5.954 -2.256 -11.384 -5.969 -15.469 c -1.469 -1.475 -3.147 -2.744 -4.969 -3.781 z m 4.969 3.781 c 3.854 4.113 6.219 9.637 6.219 15.719 c 0 12.703 -10.297 23 -23 23 c -6.081 0 -11.606 -2.364 -15.719 -6.219 c 4.16 4.144 9.883 6.719 16.219 6.719 c 12.703 0 23 -10.298 23 -23 c 0 -6.335 -2.575 -12.06 -6.719 -16.219 z" opacity="0.05"/><path d="m 41.28 8.781 c 3.712 4.085 5.969 9.514 5.969 15.469 c 0 12.703 -10.297 23 -23 23 c -5.954 0 -11.384 -2.256 -15.469 -5.969 c 4.113 3.854 9.637 6.219 15.719 6.219 c 12.703 0 23 -10.298 23 -23 c 0 -6.081 -2.364 -11.606 -6.219 -15.719 z" opacity="0.1"/><path d="m 31.25 2.375 c 8.615 3.154 14.75 11.417 14.75 21.13 c 0 12.426 -10.07 22.5 -22.5 22.5 c -9.708 0 -17.971 -6.135 -21.12 -14.75 a 23 23 0 0 0 44.875 -7 a 23 23 0 0 0 -16 -21.875 z" opacity="0.2"/></g><g fill="url(#linearGradient4555)"><path d="m 24 1 c 12.703 0 23 10.297 23 23 c 0 12.703 -10.297 23 -23 23 -12.703 0 -23 -10.297 -23 -23 0 -12.703 10.297 -23 23 -23 z" fill-opacity="1" fill="url(#linearGradient4557)"/></g><g><path d="m 40.03 7.531 c 3.712 4.084 5.969 9.514 5.969 15.469 0 12.703 -10.297 23 -23 23 c -5.954 0 -11.384 -2.256 -15.469 -5.969 4.178 4.291 10.01 6.969 16.469 6.969 c 12.703 0 23 -10.298 23 -23 0 -6.462 -2.677 -12.291 -6.969 -16.469 z" opacity="0.1"/></g><g transform="translate(1,1)" opacity="0.1" fill="#000"><path d="m 22 10 -0.965 2.895 a 11.5 11.5 0 0 0 -2.781 1.16 l -2.738 -1.369 -2.83 2.83 1.367 2.734 a 11.5 11.5 0 0 0 -1.148 2.781 l -2.904 0.969 l 0 4 2.895 0.965 a 11.5 11.5 0 0 0 1.16 2.781 l -1.369 2.738 2.83 2.83 l 2.734 -1.367 a 11.5 11.5 0 0 0 2.781 1.148 l 0.969 2.904 l 4 0 0.965 -2.895 a 11.5 11.5 0 0 0 2.781 -1.16 l 2.738 1.369 2.83 -2.83 l -1.367 -2.734 a 11.5 11.5 0 0 0 1.148 -2.781 l 2.904 -0.969 0 -4 -2.895 -0.965 a 11.5 11.5 0 0 0 -1.16 -2.781 l 1.369 -2.738 -2.83 -2.83 -2.734 1.367 a 11.5 11.5 0 0 0 -2.781 -1.148 l -0.969 -2.904 -4 0 m 2 6 a 8 8 0 0 1 8 8 8 8 0 0 1 -8 8 8 8 0 0 1 -8 -8 8 8 0 0 1 8 -8 z" opacity="1" fill="#000" stroke="none" fill-opacity="1"/><path d="m 14 15 5 0 5 12 5 -12 5 0 -7 16 -6 0 z" fill="#000" fill-rule="evenodd" stroke="none" fill-opacity="1"/></g><g><path d="m 22 10 l -0.965 2.895 a 11.5 11.5 0 0 0 -2.781 1.16 l -2.738 -1.369 l -2.83 2.83 l 1.367 2.734 a 11.5 11.5 0 0 0 -1.148 2.781 l -2.904 0.969 l 0 4 l 2.895 0.965 a 11.5 11.5 0 0 0 1.16 2.781 l -1.369 2.738 l 2.83 2.83 l 2.734 -1.367 a 11.5 11.5 0 0 0 2.781 1.148 l 0.969 2.904 l 4 0 l 0.965 -2.895 a 11.5 11.5 0 0 0 2.781 -1.16 l 2.738 1.369 l 2.83 -2.83 l -1.367 -2.734 a 11.5 11.5 0 0 0 1.148 -2.781 l 2.904 -0.969 l 0 -4 l -2.895 -0.965 a 11.5 11.5 0 0 0 -1.16 -2.781 l 1.369 -2.738 l -2.83 -2.83 l -2.734 1.367 a 11.5 11.5 0 0 0 -2.781 -1.148 l -0.969 -2.904 l -4 0 z m 2 6 a 8 8 0 0 1 8 8 a 8 8 0 0 1 -8 8 a 8 8 0 0 1 -8 -8 a 8 8 0 0 1 8 -8 z" opacity="1" fill="#b143a7" stroke="none" fill-opacity="1"/><path d="m 14 15 5 0 5 12 5 -12 5 0 -7 16 -6 0 z" fill="#e44040" fill-rule="evenodd" stroke="none" fill-opacity="1"/></g></svg>
